FlatUX/src/svg/SNK - Neo Geo Pocket.svg

<svg enable-background="new 0 0 256 256" viewBox="0 0 256 256" xmlns="http://www.w3.org/2000/svg"><path d="m23.226 56h209.548c3.742 0 11.226 1.895 11.226 5.684v117.476c0 7.579-11.272 14.321-18.71 15.158-67.355 7.579-128.059 7.572-194.581 0-7.448-.847-18.709-7.579-18.709-15.158v-117.476c0-3.789 7.484-5.684 11.226-5.684z" fill="#223140"/><path d="m26.839 56h202.323c3.612 0 10.838 1.895 10.838 5.684v117.476c0 7.579-10.883 14.321-18.065 15.158-65.032 7.579-123.643 7.572-187.871 0-7.191-.847-18.064-7.579-18.064-15.158v-117.476c0-3.789 7.226-5.684 10.839-5.684z" fill="#35495f"/><path d="m71.71 60h112.546c2.065 0 3.727 1.686 3.727 3.78v113.386c0 3.78-120 3.78-120 0v-113.386c0-2.094 1.662-3.78 3.727-3.78z" fill="#223140"/><path d="m83.983 80h88v84h-88z" fill="#6c7a88"/><path d="m151.983 179.795v-10.399h-48v10.399c15.215.273 32.784.273 48 0z" fill="#223140"/><path d="m26.669 80h8.049c2.196 0 3.976 1.791 3.976 4 0 2.209-1.78 4-3.976 4h-8.049c-2.196 0-3.976-1.791-3.976-4 0-2.209 1.78-4 3.976-4z" fill="#223140"/><path d="m55.976 80h.049c2.195 0 3.975 1.791 3.975 4 0 2.209-1.78 4-3.976 4h-.049c-2.195 0-3.975-1.791-3.975-4 0-2.209 1.78-4 3.976-4z" fill="#223140"/><circle cx="204" cy="118" fill="#223140" r="10"/><circle cx="224" cy="102" fill="#223140" r="10"/><circle cx="40" cy="116" fill="#2b3e51" r="20"/><g fill="#223140"><path d="m52 116c0 6.627-5.373 12-12 12s-12-5.373-12-12c0-6.627 5.373-12 12-12s12 5.373 12 12z"/><circle cx="226" cy="74" r="6"/><circle cx="32" cy="156" r="2"/><circle cx="38" cy="156" r="2"/><circle cx="44" cy="156" r="2"/><circle cx="50" cy="156" r="2"/><circle cx="56" cy="156" r="2"/><circle cx="32" cy="162" r="2"/><circle cx="38" cy="162" r="2"/><circle cx="44" cy="162" r="2"/><circle cx="50" cy="162" r="2"/><circle cx="56" cy="162" r="2"/><circle cx="32" cy="168" r="2"/><circle cx="38" cy="168" r="2"/><circle cx="44" cy="168" r="2"/><circle cx="50" cy="168" r="2"/><circle cx="56" cy="168" r="2"/><circle cx="32" cy="174" r="2"/><circle cx="38" cy="174" r="2"/><circle cx="44" cy="174" r="2"/><circle cx="50" cy="174" r="2"/><circle cx="56" cy="174" r="2"/></g><circle cx="198" cy="154" fill="#2b3e51" r="2"/><circle cx="214" cy="154" fill="#2b3e51" r="2"/><circle cx="230" cy="154" fill="#2b3e51" r="2"/><circle cx="198" cy="166" fill="#2b3e51" r="2"/><circle cx="214" cy="166" fill="#2b3e51" r="2"/><circle cx="230" cy="166" fill="#2b3e51" r="2"/><circle cx="198" cy="178" fill="#2b3e51" r="2"/><circle cx="214" cy="178" fill="#2b3e51" r="2"/><circle cx="230" cy="178" fill="#2b3e51" r="2"/></svg>

<svg xmlns="http://www.w3.org/2000/svg" viewBox="0 0 256 256"><path fill="#223140" d="M23.226 56h209.548C236.516 56 244 57.895 244 61.684V179.16c0 7.579-11.272 14.321-18.71 15.158-67.355 7.579-128.059 7.572-194.581 0C23.261 193.471 12 186.739 12 179.16V61.684C12 57.895 19.484 56 23.226 56"/><path fill="#35495f" d="M26.839 56h202.323C232.774 56 240 57.895 240 61.684V179.16c0 7.579-10.883 14.321-18.065 15.158-65.032 7.579-123.643 7.572-187.871 0C26.873 193.471 16 186.739 16 179.16V61.684C16 57.895 23.226 56 26.839 56"/><path fill="#223140" d="M71.71 60h112.546c2.065 0 3.727 1.686 3.727 3.78v113.386c0 3.78-120 3.78-120 0V63.78c0-2.094 1.662-3.78 3.727-3.78"/><path fill="#6c7a88" d="M83.983 80h88v84h-88z"/><path fill="#223140" d="M151.983 179.795v-10.399h-48v10.399c15.215.273 32.784.273 48 0M26.669 80h8.049c2.196 0 3.976 1.791 3.976 4s-1.78 4-3.976 4h-8.049c-2.196 0-3.976-1.791-3.976-4s1.78-4 3.976-4m29.307 0h.049C58.22 80 60 81.791 60 84s-1.78 4-3.976 4h-.049C53.78 88 52 86.209 52 84s1.78-4 3.976-4"/><circle cx="204" cy="118" r="10" fill="#223140"/><circle cx="224" cy="102" r="10" fill="#223140"/><circle cx="40" cy="116" r="20" fill="#2b3e51"/><g fill="#223140"><path d="M52 116c0 6.627-5.373 12-12 12s-12-5.373-12-12 5.373-12 12-12 12 5.373 12 12"/><circle cx="226" cy="74" r="6"/><circle cx="32" cy="156" r="2"/><circle cx="38" cy="156" r="2"/><circle cx="44" cy="156" r="2"/><circle cx="50" cy="156" r="2"/><circle cx="56" cy="156" r="2"/><circle cx="32" cy="162" r="2"/><circle cx="38" cy="162" r="2"/><circle cx="44" cy="162" r="2"/><circle cx="50" cy="162" r="2"/><circle cx="56" cy="162" r="2"/><circle cx="32" cy="168" r="2"/><circle cx="38" cy="168" r="2"/><circle cx="44" cy="168" r="2"/><circle cx="50" cy="168" r="2"/><circle cx="56" cy="168" r="2"/><circle cx="32" cy="174" r="2"/><circle cx="38" cy="174" r="2"/><circle cx="44" cy="174" r="2"/><circle cx="50" cy="174" r="2"/><circle cx="56" cy="174" r="2"/></g><circle cx="198" cy="154" r="2" fill="#2b3e51"/><circle cx="214" cy="154" r="2" fill="#2b3e51"/><circle cx="230" cy="154" r="2" fill="#2b3e51"/><circle cx="198" cy="166" r="2" fill="#2b3e51"/><circle cx="214" cy="166" r="2" fill="#2b3e51"/><circle cx="230" cy="166" r="2" fill="#2b3e51"/><circle cx="198" cy="178" r="2" fill="#2b3e51"/><circle cx="214" cy="178" r="2" fill="#2b3e51"/><circle cx="230" cy="178" r="2" fill="#2b3e51"/></svg>
